assets/img/blocks/form/radio.svg

<?xml version="1.0" encoding="UTF-8"?>
<svg width="17px" height="17px" viewBox="0 0 17 17" version="1.1" xmlns="http://www.w3.org/2000/svg" xmlns:xlink="http://www.w3.org/1999/xlink">
    <!-- Generator: Sketch 58 (84663) - https://sketch.com -->
    <title>Radio</title>
    <desc>Created with Sketch.</desc>
    <g id="Page-1" stroke="none" stroke-width="1" fill="none" fill-rule="evenodd">
        <path d="M8.14286685,0 C12.6384079,0 16.2857337,3.64732578 16.2857337,8.14286685 C16.2857337,12.6384079 12.6384079,16.2857337 8.14286685,16.2857337 C3.64732578,16.2857337 0,12.6384079 0,8.14286685 C0,3.64732578 3.64732578,0 8.14286685,0 Z M8.14286685,2.37500283 C4.96205949,2.37500283 2.37500283,4.96205949 2.37500283,8.14286685 C2.37500283,11.3236742 4.96205949,13.9107309 8.14286685,13.9107309 C11.3236742,13.9107309 13.9107309,11.3236742 13.9107309,8.14286685 C13.9107309,4.96205949 11.3236742,2.37500283 8.14286685,2.37500283 Z M8.14286685,5.4285779 C9.63784631,5.4285779 10.8571558,6.64788739 10.8571558,8.14286685 C10.8571558,9.63784631 9.63784631,10.8571558 8.14286685,10.8571558 C6.64788739,10.8571558 5.4285779,9.63784631 5.4285779,8.14286685 C5.4285779,6.64788739 6.64788739,5.4285779 8.14286685,5.4285779 Z" id="Radio" fill="#535F6A" fill-rule="nonzero"></path>
    </g>
</svg>

<svg xmlns="http://www.w3.org/2000/svg" width="17" height="17"><path fill="#535F6A" fill-rule="nonzero" d="M8.143 0a8.145 8.145 0 0 1 8.143 8.143 8.145 8.145 0 0 1-8.143 8.143A8.145 8.145 0 0 1 0 8.143 8.145 8.145 0 0 1 8.143 0Zm0 2.375a5.774 5.774 0 0 0-5.768 5.768 5.774 5.774 0 0 0 5.768 5.768 5.774 5.774 0 0 0 5.768-5.768 5.774 5.774 0 0 0-5.768-5.768Zm0 3.054a2.72 2.72 0 0 1 2.714 2.714 2.72 2.72 0 0 1-2.714 2.714 2.72 2.72 0 0 1-2.714-2.714 2.72 2.72 0 0 1 2.714-2.714Z"/></svg>
